X:1
T: Mr. Grant of Pilnacree's Strathspey
C:
R:Strathspey
Q: 128
K:D
M:4/4
L:1/16
|:f2|d3A FD3 AD3 FD3|G3A BAGF E2e2 e2f2|d3A FD3 AD3 FD3|G3B ABcA dD3 D2f2|
d3A FD3 AD3 FD3|G3A BAGF E2e2 e2f2|d3A FD3 AD3 FD3|G3B ABcA dD3 D2f2|
ddd2 f3d g3e fd3|Be3 e3d cA3 A3f|ddd2 f3d g3e fd3|e2a2 a3g fd3 d2f2|
ddd2 f3d g3e fd3|Be3 e3d cA3 A3f|d3A FA3 GB3 FA3|E3g fgag f2d2 d2:|
